components/Common/Svg/svgs/validation.svg

<svg
  width="40"
  height="40"
  viewBox="0 0 40 40"
  fill="none"
  xmlns="http://www.w3.org/2000/svg"
>
  <path
    d="M36 13.8079H34.7717L35.2882 12.7748H30.0031L29.4866 13.8079H26.5953C25.8268 8.18898 21.0709 4 15.3575 4C9.09606 4 4 9.09606 4 15.3575C4 19.5528 6.28661 23.2189 9.67559 25.1843V36H10.7087V31.3575H20V36H21.0331V25.1968C23.9937 23.4961 26.1039 20.4976 26.5953 16.9071H29.4992L30.0157 17.8898H35.3071L34.7906 16.9071H36V13.8079ZM10.7087 30.3244V25.7134C12.126 26.3496 13.7008 26.7087 15.3512 26.7087C17.0079 26.7087 18.5764 26.3496 19.9937 25.7197V30.3244H10.7087ZM15.3575 25.6756C9.66299 25.6756 5.03307 21.0457 5.03307 15.3512C5.03307 9.65669 9.66299 5.03307 15.3575 5.03307C20.5102 5.03307 24.8 8.7748 25.5559 13.8079H23.9874C23.2441 9.65669 19.6157 6.58268 15.3575 6.58268C10.5197 6.58268 6.58268 10.5197 6.58268 15.3575C6.58268 20.1953 10.5197 24.1323 15.3575 24.1323C19.622 24.1323 23.2441 21.0583 23.9874 16.9071H25.5559C24.8 21.9402 20.5165 25.6756 15.3575 25.6756ZM15.3512 12.2583C13.6441 12.2583 12.252 13.6504 12.252 15.3575C12.252 17.0646 13.6441 18.4567 15.3512 18.4567C16.4661 18.4567 17.4803 17.8583 18.0283 16.9071H19.7291C19.0803 18.7339 17.3354 20.0063 15.3512 20.0063C12.7874 20.0063 10.7087 17.9213 10.7087 15.3638C10.7087 12.8063 12.7937 10.7213 15.3512 10.7213C17.3354 10.7213 19.0803 11.9937 19.7291 13.8205H18.0283V13.8079C17.4803 12.8567 16.4661 12.2583 15.3512 12.2583ZM16.3843 16.9008H16.7181C16.3465 17.2283 15.8677 17.4173 15.3512 17.4173C14.211 17.4173 13.285 16.4913 13.285 15.3512C13.285 14.211 14.211 13.285 15.3512 13.285C15.8614 13.285 16.3465 13.474 16.7181 13.8016H16.3843C15.5276 13.8016 14.8346 14.4945 14.8346 15.3512C14.8409 16.2079 15.5339 16.9008 16.3843 16.9008ZM15.3512 9.68189C12.2205 9.68189 9.67559 12.2268 9.67559 15.3575C9.67559 18.4882 12.2205 21.0331 15.3512 21.0331C17.8961 21.0331 20.126 19.3197 20.8126 16.9071H22.9354C22.211 20.4724 19.0551 23.0992 15.3512 23.0992C11.0803 23.0992 7.60945 19.6283 7.60945 15.3575C7.60945 11.0866 11.0866 7.61575 15.3575 7.61575C19.0551 7.61575 22.2173 10.2425 22.9417 13.8079H20.8126C20.126 11.3953 17.8961 9.68189 15.3512 9.68189ZM33.0772 15.874L33.5937 16.8567H30.6331L30.1165 15.874H16.3843C16.1008 15.874 15.8677 15.6409 15.8677 15.3575C15.8677 15.074 16.1008 14.8409 16.3843 14.8409H30.1228L30.6394 13.8079H33.6126L33.0961 14.8409H34.9606V15.874H33.0772Z"
    fill="black"
  ></path>
</svg>

<svg width="40" height="40" viewBox="0 0 40 40" fill="none" xmlns="http://www.w3.org/2000/svg"><path d="M36 13.808h-1.228l.516-1.033h-5.285l-.516 1.033h-2.892A11.312 11.312 0 0 0 15.358 4C9.096 4 4 9.096 4 15.357c0 4.196 2.287 7.862 5.676 9.827V36h1.033v-4.642H20V36h1.033V25.197c2.96-1.7 5.07-4.7 5.562-8.29H29.5l.517.983h5.291l-.516-.983H36v-3.1ZM10.709 30.324v-4.61c1.417.636 2.992.995 4.642.995a11.4 11.4 0 0 0 4.643-.99v4.605h-9.285Zm4.649-4.648c-5.695 0-10.325-4.63-10.325-10.325 0-5.694 4.63-10.318 10.325-10.318 5.152 0 9.442 3.742 10.198 8.775h-1.569c-.743-4.151-4.371-7.225-8.63-7.225-4.837 0-8.774 3.937-8.774 8.774 0 4.838 3.937 8.775 8.774 8.775 4.265 0 7.887-3.074 8.63-7.225h1.569a10.27 10.27 0 0 1-10.199 8.769Zm-.007-13.418a3.105 3.105 0 0 0-3.099 3.1c0 1.707 1.392 3.099 3.1 3.099 1.114 0 2.128-.599 2.676-1.55h1.701a4.663 4.663 0 0 1-4.378 3.1 4.647 4.647 0 0 1-4.642-4.643 4.65 4.65 0 0 1 4.642-4.643 4.663 4.663 0 0 1 4.378 3.1h-1.7v-.013a3.088 3.088 0 0 0-2.678-1.55Zm1.033 4.643h.334a2.067 2.067 0 1 1-1.367-3.616c.51 0 .995.189 1.367.517h-.334a1.549 1.549 0 1 0 0 3.099Zm-1.033-7.22a5.68 5.68 0 0 0-5.675 5.677 5.68 5.68 0 0 0 5.675 5.675 5.7 5.7 0 0 0 5.462-4.126h2.122a7.749 7.749 0 0 1-7.584 6.192c-4.27 0-7.742-3.47-7.742-7.742 0-4.27 3.478-7.741 7.748-7.741a7.754 7.754 0 0 1 7.585 6.192h-2.13a5.7 5.7 0 0 0-5.46-4.126Zm17.726 6.193.517.983h-2.96l-.518-.983H16.384a.519.519 0 0 1-.516-.517c0-.283.233-.516.516-.516h13.739l.516-1.033h2.974l-.517 1.033h1.865v1.033h-1.884Z" fill="#000"/></svg>
